styles/2/Numix-Circle/48x48/apps/thunar.svg

<?xml version="1.0" encoding="UTF-8" standalone="no"?>
<svg
   xmlns:dc="http://purl.org/dc/elements/1.1/"
   xmlns:cc="http://creativecommons.org/ns#"
   xmlns:rdf="http://www.w3.org/1999/02/22-rdf-syntax-ns#"
   xmlns:svg="http://www.w3.org/2000/svg"
   xmlns="http://www.w3.org/2000/svg"
   xmlns:xlink="http://www.w3.org/1999/xlink"
   xmlns:sodipodi="http://sodipodi.sourceforge.net/DTD/sodipodi-0.dtd"
   xmlns:inkscape="http://www.inkscape.org/namespaces/inkscape"
   width="48"
   viewBox="0 0 13.546667 13.546667"
   height="48"
   id="svg2"
   version="1.1"
   inkscape:version="0.91 r"
   sodipodi:docname="thunar.svg">
  <metadata
     id="metadata331">
    <rdf:RDF>
      <cc:Work
         rdf:about="">
        <dc:format>image/svg+xml</dc:format>
        <dc:type
           rdf:resource="http://purl.org/dc/dcmitype/StillImage" />
        <dc:title />
      </cc:Work>
    </rdf:RDF>
  </metadata>
  <sodipodi:namedview
     pagecolor="#ffffff"
     bordercolor="#666666"
     borderopacity="1"
     objecttolerance="10"
     gridtolerance="10"
     guidetolerance="10"
     inkscape:pageopacity="0"
     inkscape:pageshadow="2"
     inkscape:window-width="1280"
     inkscape:window-height="998"
     id="namedview329"
     showgrid="true"
     inkscape:zoom="6.059384"
     inkscape:cx="-3.5855253"
     inkscape:cy="35.09453"
     inkscape:window-x="0"
     inkscape:window-y="0"
     inkscape:window-maximized="1"
     inkscape:current-layer="layer3"
     showguides="true"
     inkscape:guide-bbox="true">
    <inkscape:grid
       type="xygrid"
       id="grid3308" />
  </sodipodi:namedview>
  <defs
     id="defs4">
    <linearGradient
       inkscape:collect="always"
       xlink:href="#linearGradient4140-9"
       id="linearGradient4147"
       x1="-27"
       y1="13"
       x2="-24"
       y2="13"
       gradientUnits="userSpaceOnUse" />
    <linearGradient
       id="linearGradient4140-9">
      <stop
         style="stop-color:#6e6196;stop-opacity:1;"
         offset="0"
         id="stop4143-1" />
      <stop
         style="stop-color:#847baf;stop-opacity:1;"
         offset="1"
         id="stop4145-8" />
    </linearGradient>
  </defs>
  <g
     inkscape:groupmode="layer"
     id="layer1"
     inkscape:label="Shadow"
     sodipodi:insensitive="true">
    <path
       style="opacity:0.05;fill:#000000;fill-opacity:1;stroke:none"
       d="M 25,2 C 12.297451,2 2,12.297451 2,25 2,31.367153 4.6007106,37.116628 8.78125,41.28125 12.865755,44.99361 18.29568,47.25 24.25,47.25 c 12.702549,0 23,-10.297451 23,-23 0,-5.95432 -2.25639,-11.384245 -5.96875,-15.46875 C 37.116628,4.6007105 31.367153,2 25,2 z M 41.28125,8.78125 C 45.135604,12.894061 47.5,18.418655 47.5,24.5 c 0,12.702549 -10.297451,23 -23,23 C 18.418655,47.5 12.894061,45.135604 8.78125,41.28125 12.940939,45.4251 18.664604,48 25,48 37.702549,48 48,37.702549 48,25 48,18.664604 45.4251,12.940939 41.28125,8.78125 z"
       transform="scale(0.28222223,0.28222223)"
       id="path3978"
       inkscape:connector-curvature="0" />
    <path
       style="opacity:0.1;fill:#000000;fill-opacity:1;stroke:none"
       d="M 41.28125,8.78125 C 44.99361,12.865755 47.25,18.29568 47.25,24.25 c 0,12.702549 -10.297451,23 -23,23 -5.95432,0 -11.384245,-2.25639 -15.46875,-5.96875 C 12.894061,45.135604 18.418655,47.5 24.5,47.5 c 12.702549,0 23,-10.297451 23,-23 0,-6.081345 -2.364396,-11.605939 -6.21875,-15.71875 z"
       transform="scale(0.28222223,0.28222223)"
       id="path3976"
       inkscape:connector-curvature="0" />
    <path
       transform="matrix(4.3274074,0,0,3.2455556,117.19278,-35.348334)"
       d="m -24,13 a 1.5,2 0 1 1 -3,0 1.5,2 0 1 1 3,0 z"
       sodipodi:ry="2"
       sodipodi:rx="1.5"
       sodipodi:cy="13"
       sodipodi:cx="-25.5"
       id="path3952"
       style="opacity:0.2;fill:#000000;fill-opacity:1;stroke:none"
       sodipodi:type="arc" />
  </g>
  <g
     inkscape:groupmode="layer"
     id="layer2"
     inkscape:label="Base">
    <path
       sodipodi:type="arc"
       style="fill:url(#linearGradient4147);fill-opacity:1.0;stroke:none"
       id="path3942"
       sodipodi:cx="-25.5"
       sodipodi:cy="13"
       sodipodi:rx="1.5"
       sodipodi:ry="2"
       d="m -24,13 a 1.5,2 0 1 1 -3,0 1.5,2 0 1 1 3,0 z"
       transform="matrix(0,-4.3274075,3.2455556,0,-35.429918,-103.60974)" />
    <path
       style="opacity:0.1;fill:#000000;fill-opacity:1;stroke:none"
       d="M 40.03125 7.53125 C 43.74361 11.615755 46 17.04568 46 23 C 46 35.702549 35.702549 46 23 46 C 17.04568 46 11.615755 43.74361 7.53125 40.03125 C 11.709416 44.322508 17.537578 47 24 47 C 36.702549 47 47 36.702549 47 24 C 47 17.537578 44.322508 11.709416 40.03125 7.53125 z "
       transform="scale(0.28222223,0.28222223)"
       id="path4027" />
  </g>
  <g
     inkscape:groupmode="layer"
     id="layer3"
     inkscape:label="Symbol">
    <path
       inkscape:connector-curvature="0"
       style="opacity:0.1;fill:#000000;fill-opacity:1;fill-rule:nonzero;stroke:none"
       d="m 4.4450048,4.2333338 c -0.110349,0 -0.211666,0.1190535 -0.211666,0.2469445 l 0,0.3175 -0.308681,0 -0.02646,0 c -0.12446,0.012138 -0.230153,0.1181738 -0.229306,0.238125 l 0,4.5949307 c 0,0.127854 0.122555,0.246944 0.255764,0.246944 l 6.2618062,0 c 0.132362,0 0.255764,-0.11909 0.255764,-0.246944 l 0,-4.0128474 c 0,-0.1267242 -0.123685,-0.2557639 -0.255764,-0.2557639 l -0.3086812,0 0,-0.8819444 c 0,-0.1281783 -0.100189,-0.2469445 -0.211667,-0.2469445 l -5.221111,0 z"
       id="path3060" />
    <path
       style="fill:#b29c9c;fill-opacity:1;fill-rule:nonzero;stroke:none"
       inkscape:connector-curvature="0"
       id="path57"
       d="m 3.9511158,5.644445 0,-1.4484726 c 0,-0.127891 0.101318,-0.2448608 0.211667,-0.2448608 l 5.221111,0 c 0.111478,0 0.211667,0.1166825 0.211667,0.2448608 l 0,1.4484726 m -5.644445,0" />
    <path
       style="fill:#ecedf1;fill-opacity:1;fill-rule:nonzero;stroke:none"
       inkscape:connector-curvature="0"
       id="path59"
       d="m 3.6161178,4.515556 c -0.12446,0.012138 -0.230293,0.1224913 -0.229446,0.2424425 l 0,4.5939865 c 0,0.127854 0.121355,0.243571 0.254564,0.243571 l 6.265329,0 C 10.038927,9.595556 10.16,9.479839 10.16,9.351985 l 0,-4.0196327 c 0,-0.1267242 -0.121355,-0.2523518 -0.2534352,-0.2523518 l -2.568782,0 0,-0.3174862 c 0,-0.1267248 -0.128978,-0.2469583 -0.261058,-0.2469583 l -3.436336,0 c -0.0076,0 -0.01665,0 -0.0254,0"
       sodipodi:nodetypes="ccsssssscsssc" />
    <path
       style="opacity:1;fill:#b29c9c;fill-opacity:1;fill-rule:nonzero;stroke:none"
       inkscape:connector-curvature="0"
       id="path77-9"
       d="m 5.7929842,5.9266641 c -0.145771,0 -0.2870221,0.019751 -0.421493,0.053889 0,-0.00226 0,-0.00339 0,-0.00564 -0.150009,0.038653 -0.263857,0.090286 -0.285891,0.1001612 0,0.00339 0,0.00649 0,0.00988 -0.0011,0 -0.0034,0.00113 -0.0056,0.00226 0.01553,0.1224502 0.03758,0.2434901 0.04859,0.2987904 0.119215,0.5036273 0.463585,0.9192258 0.919262,1.1398626 -0.0023,0.03414 -0.0056,0.06715 -0.0056,0.1024184 0,0.4649736 0.187581,0.8862149 0.488728,1.19347 -0.0023,0.00113 0.0023,0.00226 0,0.00339 0.0873,0.08154 0.20538,0.1763402 0.229675,0.1949616 0.0065,0.00339 0.01667,0.00649 0.01978,0.011004 0.100281,-0.08832 0.189833,-0.1839661 0.212998,-0.2093591 0.301148,-0.3075372 0.48873,-0.7284964 0.48873,-1.19347 0,-0.031882 -0.0056,-0.062919 -0.0065,-0.094801 0.463585,-0.2138654 0.813324,-0.6291816 0.937907,-1.1342198 -0.0023,-0.00113 0.0011,-0.00226 0,-0.00339 0.03079,-0.1354292 0.05311,-0.2821441 0.05311,-0.2976621 -0.0023,-0.00113 -0.0056,-0.00226 -0.0076,-0.00339 0,-0.00762 0,0.00113 0,-0.00649 -0.06413,-0.028779 -0.209616,-0.078154 -0.287022,-0.103547 0,0.00564 0,-0.00226 0,0.00339 -0.140123,-0.037528 -0.288155,-0.060664 -0.438163,-0.060664 -0.363016,0 -0.698628,0.1168077 -0.97435,0.3117694 -0.105938,0.080411 -0.182214,0.14869 -0.230522,0.1949617 -0.0056,0.00564 -0.0088,0.012133 -0.0144,0.017775 -0.159048,0.1653365 -0.282502,0.3625553 -0.365275,0.580935 0.08927,0.053043 0.177693,0.097057 0.257077,0.1345828 0.06611,-0.1918582 0.175434,-0.3648126 0.313294,-0.510399 0.0011,-0.00226 0.0056,-0.00762 0.0087,-0.011004 0.0065,-0.00762 0.01328,-0.016646 0.02316,-0.025393 0.0023,-0.00339 0.0056,-0.00339 0.0087,-0.00649 0.09831,-0.086054 0.175434,-0.1422007 0.232782,-0.1797258 0.02882,-0.017775 0.05848,-0.035268 0.08843,-0.050786 0.195209,-0.103547 0.414996,-0.1630794 0.652297,-0.1630794 0.141252,0 0.279112,0.020878 0.408216,0.060661 -0.08619,0.4122138 -0.349762,0.7561476 -0.7108,0.9488522 -0.05622,-0.2381298 -0.161026,-0.459613 -0.306798,-0.6469568 -0.121475,0.084926 -0.225154,0.1706973 -0.232781,0.1774688 0.119216,0.1520757 0.207356,0.3295445 0.255947,0.5233775 0,0 0.0056,0.01975 0.0144,0.057275 0.0034,0.017775 0.0065,0.028779 0.01327,0.064046 0.0178,0.088312 0.01554,0.1896009 0.01441,0.2302297 0,0.00762 0,0.028779 0,0.028779 l -0.0034,0.00452 c -0.01101,0.3814549 -0.17204,0.7231315 -0.42714,0.9700077 -0.2638559,-0.2544941 -0.429403,-0.6116886 -0.43025,-1.0095119 0.141251,0.038653 0.2889991,0.060661 0.44155,0.060661 0.08277,0 0.165546,-0.00875 0.2449301,-0.020878 0.0045,-0.028779 0.0065,-0.06179 0.0087,-0.111447 0.0034,-0.088312 -0.0076,-0.14869 -0.01667,-0.1828295 -0.07713,0.01326 -0.156789,0.019751 -0.2361719,0.019751 -0.1423811,0 -0.2802421,-0.020878 -0.410475,-0.059533 -0.10255,-0.020879 -0.19973,-0.071666 -0.270356,-0.1156801 -0.03983,-0.024264 -0.06611,-0.041757 -0.08051,-0.050786 -0.310187,-0.2006047 -0.538449,-0.5168883 -0.614725,-0.8927044 0.1245839,-0.036397 0.255948,-0.057275 0.3929599,-0.057275 0.199729,0 0.3873111,0.041758 0.558508,0.1179363 0.0839,-0.079283 0.18532,-0.1588473 0.242669,-0.2028618 -0.238435,-0.1300673 -0.511049,-0.205964 -0.8011799,-0.205964 m 0.0023,0.00113" />
  </g>
</svg>

<svg xmlns="http://www.w3.org/2000/svg" viewBox="0 0 48 48">
 <defs>
  <linearGradient id="linearGradient3764" x1="1" x2="47" gradientUnits="userSpaceOnUse" gradientTransform="matrix(0,-1,1,0,-1.5e-6,47.999998)">
   <stop style="stop-color:#7568a0;stop-opacity:1"/>
   <stop offset="1" style="stop-color:#8074a8;stop-opacity:1"/>
  </linearGradient>
 </defs>
 <g>
  <path d="m 36.31 5 c 5.859 4.062 9.688 10.831 9.688 18.5 c 0 12.426 -10.07 22.5 -22.5 22.5 c -7.669 0 -14.438 -3.828 -18.5 -9.688 c 1.037 1.822 2.306 3.499 3.781 4.969 c 4.085 3.712 9.514 5.969 15.469 5.969 c 12.703 0 23 -10.298 23 -23 c 0 -5.954 -2.256 -11.384 -5.969 -15.469 c -1.469 -1.475 -3.147 -2.744 -4.969 -3.781 z m 4.969 3.781 c 3.854 4.113 6.219 9.637 6.219 15.719 c 0 12.703 -10.297 23 -23 23 c -6.081 0 -11.606 -2.364 -15.719 -6.219 c 4.16 4.144 9.883 6.719 16.219 6.719 c 12.703 0 23 -10.298 23 -23 c 0 -6.335 -2.575 -12.06 -6.719 -16.219 z" style="opacity:0.05"/>
  <path d="m 41.28 8.781 c 3.712 4.085 5.969 9.514 5.969 15.469 c 0 12.703 -10.297 23 -23 23 c -5.954 0 -11.384 -2.256 -15.469 -5.969 c 4.113 3.854 9.637 6.219 15.719 6.219 c 12.703 0 23 -10.298 23 -23 c 0 -6.081 -2.364 -11.606 -6.219 -15.719 z" style="opacity:0.1"/>
  <path d="m 31.25 2.375 c 8.615 3.154 14.75 11.417 14.75 21.13 c 0 12.426 -10.07 22.5 -22.5 22.5 c -9.708 0 -17.971 -6.135 -21.12 -14.75 a 23 23 0 0 0 44.875 -7 a 23 23 0 0 0 -16 -21.875 z" style="opacity:0.2"/>
 </g>
 <g>
  <path d="m 24 1 c 12.703 0 23 10.297 23 23 c 0 12.703 -10.297 23 -23 23 -12.703 0 -23 -10.297 -23 -23 0 -12.703 10.297 -23 23 -23 z" style="fill:url(#linearGradient3764);fill-opacity:1"/>
 </g>
 <g>
  <path d="m 40.03 7.531 c 3.712 4.084 5.969 9.514 5.969 15.469 0 12.703 -10.297 23 -23 23 c -5.954 0 -11.384 -2.256 -15.469 -5.969 4.178 4.291 10.01 6.969 16.469 6.969 c 12.703 0 23 -10.298 23 -23 0 -6.462 -2.677 -12.291 -6.969 -16.469 z" style="opacity:0.1"/>
 </g>
 <g transform="matrix(3.543307,0,0,3.543307,-0.00115594,0.00275676)">
  <path d="m 4.445,4.233 c -0.11,0 -0.212,0.119 -0.212,0.247 l 0,0.317 -0.309,0 -0.026,0 C 3.774,4.809 3.668,4.915 3.669,5.035 l 0,4.595 c 0,0.128 0.123,0.247 0.256,0.247 l 6.262,0 c 0.132,0 0.256,-0.119 0.256,-0.247 l 0,-4.01 c 0,-0.127 -0.124,-0.256 -0.256,-0.256 l -0.309,0 0,-0.882 c 0,-0.128 -0.1,-0.247 -0.212,-0.247 l -5.221,0 z" style="fill:#000;opacity:0.1;fill-opacity:1;stroke:none;fill-rule:nonzero"/>
  <path d="m 3.951 5.644 0 -1.448 c 0 -0.128 0.101 -0.245 0.212 -0.245 l 5.221 0 c 0.111 0 0.212 0.117 0.212 0.245 l 0 1.448 m -5.644 0" style="fill:#b29c9c;fill-opacity:1;stroke:none;fill-rule:nonzero"/>
  <path d="M 3.616,4.516 C 3.492,4.528 3.386,4.638 3.387,4.758 l 0,4.594 c 0,0.128 0.121,0.244 0.255,0.244 l 6.265,0 c 0.132,0 0.253,-0.116 0.253,-0.244 l 0,-4.02 C 10.16,5.205 10.039,5.08 9.907,5.08 l -2.569,0 0,-0.317 C 7.338,4.636 7.209,4.516 7.077,4.516 l -3.436,0 c -0.008,0 -0.017,0 -0.025,0" style="fill:#ecedf1;fill-opacity:1;stroke:none;fill-rule:nonzero"/>
  <path d="m 5.793,5.927 c -0.146,0 -0.287,0.02 -0.421,0.054 0,-0.002 0,-0.003 0,-0.006 -0.15,0.039 -0.264,0.09 -0.286,0.1 0,0.003 0,0.006 0,10e-4 -1e-4,0 -0.003,1e-4 -0.006,0.002 0.016,0.122 0.038,0.243 0.049,0.299 0.119,0.504 0.464,0.919 0.919,1.14 -0.002,0.034 -0.006,0.067 -0.006,0.102 0,0.465 0.188,0.886 0.489,1.193 -0.002,10e-5 0.002,0.002 0,0.003 0.087,0.082 0.205,0.176 0.23,0.195 0.006,0.003 0.017,0.006 0.02,0.011 C 6.881,8.933 6.971,8.837 6.994,8.812 7.295,8.504 7.483,8.084 7.483,7.619 7.483,7.587 7.477,7.556 7.477,7.524 7.941,7.31 8.29,6.895 8.415,6.39 8.413,6.3899 8.4151,6.388 8.415,6.387 8.446,6.252 8.468,6.105 8.468,6.089 8.466,6.0889 8.462,6.087 8.46,6.086 c 0,-0.008 0,10e-5 0,-0.006 C 8.396,6.051 8.25,6.002 8.173,5.976 c 0,0.006 0,-0.002 0,0.003 C 8.033,5.941 7.885,5.918 7.735,5.918 7.372,5.918 7.036,6.035 6.761,6.23 6.655,6.31 6.579,6.379 6.53,6.425 6.524,6.431 6.521,6.437 6.516,6.443 6.357,6.608 6.233,6.806 6.151,7.024 6.24,7.077 6.329,7.121 6.408,7.159 6.474,6.967 6.583,6.794 6.721,6.649 6.7211,6.647 6.727,6.641 6.73,6.638 6.736,6.63 6.743,6.621 6.753,6.613 6.755,6.61 6.759,6.61 6.762,6.607 6.86,6.521 6.937,6.465 6.995,6.427 7.024,6.409 7.053,6.392 7.083,6.376 7.278,6.272 7.498,6.213 7.735,6.213 7.876,6.213 8.014,6.234 8.143,6.274 8.057,6.686 7.793,7.03 7.432,7.223 7.376,6.985 7.271,6.763 7.125,6.576 7.004,6.661 6.9,6.747 6.892,6.753 c 0.119,0.152 0.207,0.33 0.256,0.523 0,0 0.006,0.02 0.014,0.057 0.003,0.018 0.006,0.029 0.013,0.064 0.018,0.088 0.016,0.19 0.014,0.23 0,0.008 0,0.029 0,0.029 L 7.186,7.661 C 7.175,8.042 7.014,8.384 6.759,8.631 6.495,8.377 6.33,8.019 6.329,7.621 6.47,7.66 6.618,7.682 6.771,7.682 6.854,7.682 6.937,7.673 7.016,7.661 7.021,7.632 7.022,7.599 7.025,7.55 7.028,7.462 7.017,7.401 7.008,7.367 6.931,7.38 6.851,7.387 6.772,7.387 6.63,7.387 6.492,7.366 6.362,7.327 6.259,7.306 6.162,7.255 6.092,7.211 6.052,7.187 6.026,7.169 6.011,7.16 5.701,6.959 5.473,6.643 5.396,6.267 5.521,6.231 5.652,6.21 5.789,6.21 c 0.2,0 0.387,0.042 0.559,0.118 C 6.432,6.249 6.533,6.169 6.591,6.125 6.353,5.995 6.08,5.919 5.79,5.919 m 0.002,1e-4" style="fill:#b29c9c;opacity:1;fill-opacity:1;stroke:none;fill-rule:nonzero"/>
 </g>
</svg>
